X:1
T:Keep on Praying, Brothers
T:Keep on Praying, Brothers
T:Joseph Blanding Sturdevant
T:Anonymous, 1872
T:Public Domain Courtesy of the Cyber Hymnal™
T:Public Domain Courtesy of the Cyber Hymnal™
C:Joseph Blanding Sturdevant
Z:Public Domain
Z:Courtesy of the Cyber Hymnal™
%%score ( 1 2 ) ( 3 4 )
L:1/8
Q:1/4=105
M:4/4
K:Eb
V:1 treble 
V:2 treble 
V:3 bass 
V:4 bass 
V:1
 [EG]2 [GB]2 [GB]>[FA] [EG]>[EA] | [EB]4 [Ec]4 | [EB]2 [EG]2 E>E [EF]>[EG] | [DF]6 z2 | %4
w: 1.~Bro- thers, when the way is|lone- ly,|And the sky is o- ver-|cast|
w: 2.~Bro- thers, when the sun- shine|com- eth,|And the sha- dows dis- ap-|pear;|
w: 3.~Bro- thers, while we jour- ney|on- ward,|Through life’s brief and change- ful|day,|
 [EG]2 [GB]2 [GB]>[FA] [EG]>[FA] | [GB]4 [Ac]4 | [GB]2 [EG]2 [EG]2 [DF]2 | E6 z2 | %8
w: With dark sha- dows that be-|to- ken|Sor- row’s win- try|blast—|
w: When the joys of faith tri-|umph- ant|Con- quer all our|fear—|
w: Though its plea- sures or its|sor- rows|Crown our pil- grim|way—|
 [DF]2 [DF]2 [EG]>[EF] E>[EF] | [EG]4 [GB]4 | [DF]2 [FB]2 [Fc]>[Fc] [FB]>[F=A] | [FB]6 z2 | %12
w: Bro- thers, then, O keep on|pray- ing;|Keep on pray- ing all the|day;|
w: Bro- thers, still we’ll keep on|pray- ing;|Keep on pray- ing all the|day;|
w: Bro- thers, we will keep on|pray- ing;|Keep on pray- ing as we|go;|
 [EG]2 [GB]2 [GB]>[EG] [FA]>[GB] | [Ac]4 [Ae]2 [Ac]2 | [GB]2 [EG]2 [EG]2 [DF]2 | E6 z2 || %16
w: All is safe in Christ re-|ly- ing; O|bro- thers, on- ly|pray.|
w: It will make the sun- shine|bright- er; O|bro- thers, watch and|pray.|
w: Soon our wea- ry, faint- ing|spir- its The|joys of Heav’n shall|know.|
"^Refrain" [DF]2 [DF]2 [EG]>[EF] E>[EF] | [EG]4 [GB]4 | [DF]2 [FB]2 [Fc]>[Fc] [FB]>[F=A] | %19
w: |||
w: Keep on pray- ing, ev- er|pray- ing,|When the sky is o- ver-|
w: |||
 [FB]6 z2 | [EG]2 [GB]2 [GB]>[EG] [FA]>[GB] | [Ac]4 [Ae]2 [Ac]2 | [GB]2 [EG]2 [EG]2 [DF]2 | E8 |] %24
w: |||||
w: cast;|Christ will keep us all from|stray- ing; O|bro- thers, watch and|pray.|
w: |||||
V:2
 x8 | x8 | x4 E>E x2 | x8 | x8 | x8 | x8 | x8 | x6 E3/2 x/ | x8 | x8 | x8 | x8 | x8 | x8 | E6 x2 || %16
 x6 E3/2 x/ | x8 | x8 | x8 | x8 | x8 | x8 | E8 |] %24
V:3
 [E,B,]2 [E,B,]2 [E,B,]>[E,B,] [E,B,]>[E,F,] | [E,G,]4 G,4 | %2
 [E,G,]2 [E,B,]2 [E,G,]>[E,G,] [E,A,]>[E,B,] | [B,,B,]6 z2 | %4
 [E,B,]2 [E,E]2 [E,E]>[E,B,] [E,B,]>[E,B,] | (B,2 E2) [A,,E]4 | %6
 [B,,E]2 [B,,B,]2 [B,,B,]2 [B,,A,]2 | [E,G,]6 z2 | [B,,B,]2 [B,,B,]2 [E,B,]>[E,A,] [E,G,]>[E,A,] | %9
 [E,B,]4 [E,B,]4 | [F,B,]2 [F,D]2 [F,E]>[F,E] [F,D]>[F,C] | [B,,D]6 z2 | %12
 [E,E]2 [E,E]2 [E,E]>[E,B,] [E,B,]>[E,E] | [A,E]4 [A,C]2 [A,E]2 | [B,E]2 B,2 [B,,B,]2 [B,,A,]2 | %15
 [E,G,]6 z2 || [B,,B,]2 [B,,B,]2 [E,B,]>[E,A,] [E,G,]>[E,A,] | [E,B,]4 [E,B,]4 | %18
 [F,B,]2 [F,D]2 [F,E]>[F,E] [F,D]>[F,C] | [B,,D]6 z2 | [E,E]2 [E,E]2 [E,E]>[E,B,] [E,B,]>[E,E] | %21
 [A,E]4 [A,C]2 [A,E]2 | [B,E]2 B,2 [B,,B,]2 [B,,A,]2 | [E,G,]8 |] %24
V:4
 x8 | x4 (A,,2 C,2) | x8 | x8 | x8 | E,4 x4 | x8 | x8 | x8 | x8 | x8 | x8 | x8 | x8 | x2 B,2 x4 | %15
 x8 || x8 | x8 | x8 | x8 | x8 | x8 | x2 B,2 x4 | x8 |] %24

